Sardi Mono Papirus Dark/22x22/actions/office-chart-area.svg

<?xml version="1.0" encoding="UTF-8" standalone="no"?>
<svg xmlns="http://www.w3.org/2000/svg" width="22" height="22" viewBox="0 0 22 22">
 <defs id="defs3051">
  <style type="text/css" id="current-color-scheme">
   .ColorScheme-Text { color:#d3dae3; }
  </style>
 </defs>
 <path style="fill:currentColor;opacity:1" class="ColorScheme-Text" transform="translate(3 3)" d="M 2 2 L 2 3.5273438 L 1.0039062 3.5273438 L 1.0039062 3.5351562 L 2 3.5351562 L 2 8 L 2 9 L 2 11 L 1 11 L 1 11.007812 L 2 11.007812 L 2 14 L 14 14 L 14 13.001953 L 14 13 L 14 11.867188 L 13.958984 11.828125 L 11.130859 9 L 11.126953 9.0039062 L 11.121094 9 L 8.9980469 11.123047 L 5.875 8 L 4.4609375 8 L 3 8 L 3 3.5351562 L 7.4648438 3.5351562 L 4.9980469 6.0019531 L 3.0019531 6.0019531 L 3.0019531 7.0019531 L 5.4121094 7.0019531 L 9.0019531 3.4121094 L 11.125 5.5351562 L 11.130859 5.53125 L 11.134766 5.5351562 L 13.962891 2.7070312 C 13.965891 2.7120312 13.255859 2 13.255859 2 L 11.130859 4.125 L 9.0039062 2 L 9.0019531 2.0019531 L 9 2 L 7.4726562 3.5273438 L 3 3.5273438 L 3 2 L 2 2 z M 3 9 L 5.4609375 9 L 7.4609375 11 L 3 11 L 3 9 z M 11.126953 10.410156 L 13.251953 12.535156 L 13.734375 13 L 3 13 L 3 11.007812 L 7.46875 11.007812 L 8.9960938 12.535156 L 8.9980469 12.533203 L 9 12.535156 L 11.126953 10.410156 z"/>
 <path style="fill:currentColor;opacity:0.5" class="ColorScheme-Text" transform="translate(3 3)" d="m 13.46,2.22 -2.451,2.779 -2,-3 -4,4 -2,0 0,7 11,0 0,-10.258 z"/>
</svg>

<?xml version="1.0" encoding="UTF-8" standalone="no"?>
<!-- Created with Inkscape (http://www.inkscape.org/) -->
<svg id="svg3049" xmlns:rdf="http://www.w3.org/1999/02/22-rdf-syntax-ns#" xmlns="http://www.w3.org/2000/svg" height="22" width="22" version="1.1" xmlns:cc="http://creativecommons.org/ns#" xmlns:dc="http://purl.org/dc/elements/1.1/">
 <defs id="defs3051">
  <style id="current-color-scheme" type="text/css">.ColorScheme-Text {
        color:#4d4d4d;
      }
      .ColorScheme-Background {
        color:#eff0f1;
      }
      .ColorScheme-Highlight {
        color:#3daee9;
      }
      .ColorScheme-ViewText {
        color:#31363b;
      }
      .ColorScheme-ViewBackground {
        color:#fcfcfc;
      }
      .ColorScheme-ViewHover {
        color:#93cee9;
      }
      .ColorScheme-ViewFocus{
        color:#3daee9;
      }
      .ColorScheme-ButtonText {
        color:#31363b;
      }
      .ColorScheme-ButtonBackground {
        color:#eff0f1;
      }
      .ColorScheme-ButtonHover {
        color:#93cee9;
      }
      .ColorScheme-ButtonFocus{
        color:#3daee9;
      }</style>
 </defs>
 <metadata id="metadata3054">
  <rdf:RDF>
   <cc:Work rdf:about="">
    <dc:format>image/svg+xml</dc:format>
    <dc:type rdf:resource="http://purl.org/dc/dcmitype/StillImage"/>
    <dc:title/>
   </cc:Work>
  </rdf:RDF>
 </metadata>
 <g id="layer1" transform="translate(-421.71 -525.79)">
  <g id="g4147" fill="#fff" transform="translate(3.0005 -2.999)">
   <path id="path4150" opacity=".3" d="m13.961 2.7051-0.82813 0.82812-2 2-0.0039-0.00391-0.0059 0.00391l-2.123-2.123-1.2949 1.2949-0.8281 0.8281-1.4668 1.4668h-2.4102v1h1.4609 1.2266 0.1875l1 1 0.82812 0.82812 1.2949 1.2949 2.123-2.123 0.006 0.0039 0.004-0.0039 2 2 0.82812 0.82812 0.041 0.039v-9.1248l-0.039-0.0371zm-10.961 6.2949v2h4.4609l-0.4648-0.465-0.8281-0.828-0.7071-0.707h-2.4609zm8.127 1.41-2.127 2.125-0.002-0.002-0.0019 0.002-1.5273-1.527h-4.4688v1.992h10.734l-0.482-0.465-0.828-0.828-1.297-1.297z" fill-rule="evenodd" transform="translate(421.71 531.79)"/>
   <path id="rect4223" opacity=".72" d="m8.998 1.998-1.5273 1.5274h-4.4707v-1.5254h-1v1.5254h0.0009765v0.00781h-0.001v4.4668 1 2h-0.0009766v0.0078h0.001v1.992 1h1 11v-0.998-0.002-1.133l-0.041-0.039-0.828-0.828-2-2-0.0039 0.00391-0.006-0.0039-2.123 2.123-1.2949-1.2949-0.8281-0.8281-1-1h-0.1875-1.2266-1.4609v-1h2.4102l1.4668-1.4668 0.8281-0.8281 1.2949-1.2949 2.123 2.123 0.0059-0.00391 0.0039 0.00391 2-2 0.82813-0.82812c0.003 0.005-0.70703-0.70703-0.70703-0.70703l-0.82812 0.82812-1.2969 1.2969-2.127-2.125-0.002 0.0019zm-5.998 1.5352h4.4629l-0.4649 0.4648-0.8281 0.8282-1.1738 1.1738h-1.9961zm0 5.4668h2.4609l0.7071 0.707 0.8281 0.828 0.4648 0.465h-4.4609zm8.127 1.4102 1.2969 1.2969 0.82812 0.82812l0.482 0.465h-10.734v-1.9922h4.4688l1.5273 1.5273 0.00195-0.002 0.00195 0.002z" transform="translate(421.71 531.79)"/>
  </g>
 </g>
</svg>
